src/assets/github.svg

<svg width="10.16mm" height="9.9091mm" version="1.1" viewBox="0 0 36 35.111" xmlns="http://www.w3.org/2000/svg">
 <g transform="translate(-115.94 -170.87)">
  <g transform="matrix(.29807 0 0 -.29807 133.94 170.87)">
   <path d="m0 0c-33.347 0-60.388-27.035-60.388-60.388 0-26.68 17.303-49.316 41.297-57.301 3.018-0.559 4.126 1.31 4.126 2.905 0 1.439-0.056 6.197-0.082 11.243-16.8-3.653-20.345 7.125-20.345 7.125-2.747 6.979-6.705 8.836-6.705 8.836-5.479 3.748 0.413 3.671 0.413 3.671 6.064-0.426 9.257-6.224 9.257-6.224 5.386-9.231 14.127-6.562 17.573-5.019 0.543 3.902 2.107 6.567 3.834 8.075-13.413 1.526-27.513 6.705-27.513 29.844 0 6.592 2.359 11.98 6.222 16.209-0.627 1.521-2.694 7.663 0.586 15.981 0 0 5.071 1.622 16.61-6.191 4.817 1.338 9.983 2.009 15.115 2.033 5.132-0.024 10.302-0.695 15.128-2.033 11.526 7.813 16.59 6.191 16.59 6.191 3.287-8.318 1.22-14.46 0.593-15.981 3.872-4.229 6.214-9.617 6.214-16.209 0-23.195-14.127-28.301-27.574-29.796 2.166-1.874 4.096-5.549 4.096-11.183 0-8.08-0.069-14.583-0.069-16.572 0-1.608 1.086-3.49 4.147-2.898 23.982 7.994 41.263 30.622 41.263 57.294 0 33.353-27.037 60.388-60.388 60.388" fill="#1b1817" fill-rule="evenodd"/>
  </g>
  <g transform="matrix(.29807 0 0 -.29807 122.76 196.72)">
   <path d="m0 0c-0.133-0.301-0.605-0.391-1.035-0.185-0.439 0.198-0.684 0.607-0.542 0.908 0.13 0.308 0.602 0.394 1.04 0.188 0.438-0.197 0.688-0.61 0.537-0.911" fill="#1b1817"/>
  </g>
  <g transform="matrix(.29807 0 0 -.29807 123.49 197.53)">
   <path d="m0 0c-0.288-0.267-0.852-0.143-1.233 0.279-0.396 0.421-0.469 0.985-0.177 1.255 0.297 0.267 0.843 0.142 1.238-0.279 0.396-0.426 0.473-0.984 0.172-1.255" fill="#1b1817"/>
  </g>
  <g transform="matrix(.29807 0 0 -.29807 124.2 198.57)">
   <path d="m0 0c-0.37-0.258-0.976-0.017-1.35 0.52-0.37 0.538-0.37 1.182 9e-3 1.44 0.374 0.258 0.971 0.025 1.35-0.507 0.369-0.546 0.369-1.19-9e-3 -1.453" fill="#1b1817"/>
  </g>
  <g transform="matrix(.29807 0 0 -.29807 125.17 199.57)">
   <path d="m0 0c-0.331-0.365-1.036-0.267-1.552 0.232-0.528 0.486-0.675 1.177-0.344 1.542 0.336 0.366 1.045 0.263 1.565-0.231 0.524-0.486 0.683-1.182 0.331-1.543" fill="#1b1817"/>
  </g>
  <g transform="matrix(.29807 0 0 -.29807 126.51 200.15)">
   <path d="m0 0c-0.147-0.473-0.825-0.687-1.509-0.486-0.683 0.207-1.13 0.76-0.992 1.238 0.142 0.476 0.824 0.7 1.513 0.485 0.682-0.206 1.13-0.756 0.988-1.237" fill="#1b1817"/>
  </g>
  <g transform="matrix(.29807 0 0 -.29807 127.99 200.26)">
   <path d="m0 0c0.017-0.498-0.563-0.911-1.281-0.92-0.722-0.016-1.307 0.387-1.315 0.877 0 0.503 0.568 0.911 1.289 0.924 0.718 0.014 1.307-0.387 1.307-0.881" fill="#1b1817"/>
  </g>
  <g transform="matrix(.29807 0 0 -.29807 129.36 200.02)">
   <path d="m0 0c0.086-0.485-0.413-0.984-1.126-1.117-0.701-0.129-1.35 0.172-1.439 0.653-0.087 0.498 0.42 0.997 1.121 1.126 0.714 0.124 1.353-0.168 1.444-0.662" fill="#1b1817"/>
  </g>
 </g>
</svg>

<?xml version="1.0" encoding="UTF-8" standalone="no"?>
<!-- Created with Inkscape (http://www.inkscape.org/) -->

<svg
   xmlns:dc="http://purl.org/dc/elements/1.1/"
   xmlns:cc="http://creativecommons.org/ns#"
   xmlns:rdf="http://www.w3.org/1999/02/22-rdf-syntax-ns#"
   xmlns:svg="http://www.w3.org/2000/svg"
   xmlns="http://www.w3.org/2000/svg"
   xmlns:sodipodi="http://sodipodi.sourceforge.net/DTD/sodipodi-0.dtd"
   xmlns:inkscape="http://www.inkscape.org/namespaces/inkscape"
   width="10.16mm"
   height="9.9091034mm"
   viewBox="0 0 35.999999 35.110996"
   id="svg3952"
   version="1.1"
   inkscape:version="0.91 r13725"
   sodipodi:docname="github.svg">
  <defs
     id="defs3954" />
  <sodipodi:namedview
     id="base"
     pagecolor="#ffffff"
     bordercolor="#666666"
     borderopacity="1.0"
     inkscape:pageopacity="0.0"
     inkscape:pageshadow="2"
     inkscape:zoom="3.959798"
     inkscape:cx="126.68441"
     inkscape:cy="54.836959"
     inkscape:document-units="px"
     inkscape:current-layer="layer1"
     showgrid="false"
     fit-margin-top="0"
     fit-margin-left="0"
     fit-margin-right="0"
     fit-margin-bottom="0"
     inkscape:window-width="1920"
     inkscape:window-height="1017"
     inkscape:window-x="0"
     inkscape:window-y="30"
     inkscape:window-maximized="1" />
  <metadata
     id="metadata3957">
    <rdf:RDF>
      <cc:Work
         rdf:about="">
        <dc:format>image/svg+xml</dc:format>
        <dc:type
           rdf:resource="http://purl.org/dc/dcmitype/StillImage" />
        <dc:title></dc:title>
      </cc:Work>
    </rdf:RDF>
  </metadata>
  <g
     inkscape:label="Layer 1"
     inkscape:groupmode="layer"
     id="layer1"
     transform="translate(-115.94357,-170.87214)">
    <g
       transform="matrix(0.29807246,0,0,-0.29807246,133.94357,170.87214)"
       id="g26">
      <path
         inkscape:connector-curvature="0"
         id="path28"
         style="fill:#1b1817;fill-opacity:1;fill-rule:evenodd;stroke:none"
         d="m 0,0 c -33.347,0 -60.388,-27.035 -60.388,-60.388 0,-26.68 17.303,-49.316 41.297,-57.301 3.018,-0.559 4.126,1.31 4.126,2.905 0,1.439 -0.056,6.197 -0.082,11.243 -16.8,-3.653 -20.345,7.125 -20.345,7.125 -2.747,6.979 -6.705,8.836 -6.705,8.836 -5.479,3.748 0.413,3.671 0.413,3.671 6.064,-0.426 9.257,-6.224 9.257,-6.224 5.386,-9.231 14.127,-6.562 17.573,-5.019 0.543,3.902 2.107,6.567 3.834,8.075 -13.413,1.526 -27.513,6.705 -27.513,29.844 0,6.592 2.359,11.98 6.222,16.209 -0.627,1.521 -2.694,7.663 0.586,15.981 0,0 5.071,1.622 16.61,-6.191 4.817,1.338 9.983,2.009 15.115,2.033 5.132,-0.024 10.302,-0.695 15.128,-2.033 11.526,7.813 16.59,6.191 16.59,6.191 3.287,-8.318 1.22,-14.46 0.593,-15.981 3.872,-4.229 6.214,-9.617 6.214,-16.209 0,-23.195 -14.127,-28.301 -27.574,-29.796 2.166,-1.874 4.096,-5.549 4.096,-11.183 0,-8.08 -0.069,-14.583 -0.069,-16.572 0,-1.608 1.086,-3.49 4.147,-2.898 23.982,7.994 41.263,30.622 41.263,57.294 C 60.388,-27.035 33.351,0 0,0" />
    </g>
    <g
       transform="matrix(0.29807246,0,0,-0.29807246,122.7612,196.71598)"
       id="g30">
      <path
         inkscape:connector-curvature="0"
         id="path32"
         style="fill:#1b1817;fill-opacity:1;fill-rule:nonzero;stroke:none"
         d="m 0,0 c -0.133,-0.301 -0.605,-0.391 -1.035,-0.185 -0.439,0.198 -0.684,0.607 -0.542,0.908 0.13,0.308 0.602,0.394 1.04,0.188 C -0.099,0.714 0.151,0.301 0,0" />
    </g>
    <g
       transform="matrix(0.29807246,0,0,-0.29807246,123.49038,197.52927)"
       id="g34">
      <path
         inkscape:connector-curvature="0"
         id="path36"
         style="fill:#1b1817;fill-opacity:1;fill-rule:nonzero;stroke:none"
         d="M 0,0 C -0.288,-0.267 -0.852,-0.143 -1.233,0.279 -1.629,0.7 -1.702,1.264 -1.41,1.534 -1.113,1.801 -0.567,1.676 -0.172,1.255 0.224,0.829 0.301,0.271 0,0" />
    </g>
    <g
       transform="matrix(0.29807246,0,0,-0.29807246,124.20006,198.56582)"
       id="g38">
      <path
         inkscape:connector-curvature="0"
         id="path40"
         style="fill:#1b1817;fill-opacity:1;fill-rule:nonzero;stroke:none"
         d="M 0,0 C -0.37,-0.258 -0.976,-0.017 -1.35,0.52 -1.72,1.058 -1.72,1.702 -1.341,1.96 -0.967,2.218 -0.37,1.985 0.009,1.453 0.378,0.907 0.378,0.263 0,0" />
    </g>
    <g
       transform="matrix(0.29807246,0,0,-0.29807246,125.17228,199.56746)"
       id="g42">
      <path
         inkscape:connector-curvature="0"
         id="path44"
         style="fill:#1b1817;fill-opacity:1;fill-rule:nonzero;stroke:none"
         d="M 0,0 C -0.331,-0.365 -1.036,-0.267 -1.552,0.232 -2.08,0.718 -2.227,1.409 -1.896,1.774 -1.56,2.14 -0.851,2.037 -0.331,1.543 0.193,1.057 0.352,0.361 0,0" />
    </g>
    <g
       transform="matrix(0.29807246,0,0,-0.29807246,126.51361,200.14903)"
       id="g46">
      <path
         inkscape:connector-curvature="0"
         id="path48"
         style="fill:#1b1817;fill-opacity:1;fill-rule:nonzero;stroke:none"
         d="m 0,0 c -0.147,-0.473 -0.825,-0.687 -1.509,-0.486 -0.683,0.207 -1.13,0.76 -0.992,1.238 0.142,0.476 0.824,0.7 1.513,0.485 C -0.306,1.031 0.142,0.481 0,0" />
    </g>
    <g
       transform="matrix(0.29807246,0,0,-0.29807246,127.9868,200.25675)"
       id="g50">
      <path
         inkscape:connector-curvature="0"
         id="path52"
         style="fill:#1b1817;fill-opacity:1;fill-rule:nonzero;stroke:none"
         d="m 0,0 c 0.017,-0.498 -0.563,-0.911 -1.281,-0.92 -0.722,-0.016 -1.307,0.387 -1.315,0.877 0,0.503 0.568,0.911 1.289,0.924 C -0.589,0.895 0,0.494 0,0" />
    </g>
    <g
       transform="matrix(0.29807246,0,0,-0.29807246,129.35752,200.02357)"
       id="g54">
      <path
         inkscape:connector-curvature="0"
         id="path56"
         style="fill:#1b1817;fill-opacity:1;fill-rule:nonzero;stroke:none"
         d="m 0,0 c 0.086,-0.485 -0.413,-0.984 -1.126,-1.117 -0.701,-0.129 -1.35,0.172 -1.439,0.653 -0.087,0.498 0.42,0.997 1.121,1.126 C -0.73,0.786 -0.091,0.494 0,0" />
    </g>
  </g>
</svg>
